!!!COM: Gomółka, Mikołaj
!!!CDT: ~1535-after 1591
!!!OTL: Błogosławiony człowiek
!!!OTL@LAT: Beatus vir
!!!AGn: Motet; Psalm
!!!SCn: Gom2001
!!!SCn: Gom2001
!!!voices: 4
!!!CNT: Polish
!!!OCY: Poland
!!!LYR: Jan Kochanowski (1530-1584/08/22)
!!!GTL: Melodiae na Psałterz Polski
!!!EFL: 1/150
!!!PPR: Łazarz Andrysowicz
!!!PPP: Kraków
!!!PDT: 1580
!!!YEC: 2015 Marcin Konik
!!!ENC: Marcin Konik
!!!END: 2015/03/06
!!!EED: Marcin Konik
!!!EEV: 2015/03/06
!!!ONB: Translated from MusicXML and edited on 2015/03/06 by Marcin Konik
!!!CharacterEncoding: utf-8
!!muse2ps: i2I150v85,85,85,150Q16
!!title: @{OTL}, @{GTL}, ed. @{ENC}
**kern	**kern	**kern	**kern
*staff4	*staff3	*staff2	*staff1
*Ivox	*Ivox	*Ivox	*Ivox
*I"Bassus	*I"Tenor	*I"Altus	*I"Cantus
*I'B	*I'T	*I'A	*I'C
*clefF4	*clefGv2	*clefGv2	*clefG2
*k[]	*k[]	*k[]	*k[]
*M2/1	*M2/1	*M2/1	*M2/1
*met(C|)	*met(C|)	*met(C|)	*met(C|)
=1-	=1-	=1-	=1-
1D	1d	1f	1a
2F	2c	2f	2a
2D	2d	2f	2a
=2	=2	=2	=2
1G	1d	1g	1b
2C	2e	2g	2cc
[2c	[2e	[2g	[2cc
=3	=3	=3	=3
2c]	2e]	2g]	2cc]
2G	2d	2g	2b
2A	2c	4f	2a
.	.	4e	.
2E	2B	2e	2g#
=4	=4	=4	=4
2AA	2A	4c	2a
.	.	4d	.
4A	1c	1e	1a
4G	.	.	.
4F	.	.	.
4E	.	.	.
2F	4B	2d	4g
.	4A	.	4f#
=5	=5	=5	=5
2E	2B	2e	2g
2E	2e	2g	2b
2G	2d	2g	2b
2D	2f	2a	2dd
=6	=6	=6	=6
2A	1e	4A	1cc
.	.	4B	.
2AA	.	4c	.
.	.	4d	.
2E	2e	4e	2b
.	.	4f	.
4C	[2e	2g	[2cc
4D	.	.	.
=7	=7	=7	=7
4E	2e]	4G	2cc]
4F	.	4A	.
2G	2d	4B	2b
.	.	4c	.
2D	2f	2d	2a
2C	2e	2g	2cc
=8	=8	=8	=8
2D	2.d	2f	2b
2D	.	2f	1a
.	4c	.	.
1E	4B	2.e	.
.	4A	.	.
.	2B	.	2g#i
.	.	4d	.
=9	=9	=9	=9
1AA	1A	1c#	1a
1E	1B	1e	1g
=10	=10	=10	=10
2E	2B	2e	2g
1E	1B	1e	1g
2C	2c	2e	2e
=11	=11	=11	=11
2F	2A	2c	2a
2F	2A	2d	2a
2E	2B	2e	2g
[2A	[2c	[2A	[2e
=12	=12	=12	=12
2A]	2c]	4A]	2e]
.	.	4B	.
1F	1A	2.c	1f
.	.	4d	.
2E	2B	2e	2g
=13	=13	=13	=13
2A	2c	2e	2a
2A	2c	4d	2f#
.	.	4c	.
2G	2B	2d	2g
2E	2G	2e	2b
=14	=14	=14	=14
2A	2A	2e	2cc
2G	2B	2e	2b
2A	2c	2e	2a
2F	2A	2d	2a
=15	=15	=15	=15
2.E	1B	2e	2.g
.	.	2e	.
4D	.	.	4f
4C	2c	2e	2e
4BB	.	.	.
2AA	2c	2e	2cc
=16	=16	=16	=16
2D	4d	2f	2b
.	4c	.	.
2F	4B	2d	2a
.	4A	.	.
2E	2B	2.e	2a
2E	2B	.	2g#
.	.	4d	.
=17	=17	=17	=17
0AA	0A	0c#	0a
==	==	==	==
*-	*-	*-	*-
